X:04
T:Miss Gordons Dance. JBu.04
O:England,South Yorkshire
S:Joshua Burnett’s MS,c1835,S.Yorkshire
M:C|
L:1/8
Q:1/2=96
R:reel
Z:vmp.R.Greig.2010
K:A
EAcA eAcA|EAcA dBB2|EAcA eAcA|BABd cAA2:|
|:agae faec|agae fgab|agae faec|BABc A2A2:|

